X: 31595
T: Palmer's Gate
R: reel
M: 4/4
K: Eminor
|:GA|BE ~E2 G3B|AGBA GEDE|G3A BAGA|BddB AB GA|
BE E2 G3B|AGBA GEDE|GABd edBA|GEED E2:|
|:GA|B2 e4 ef|g2 fg edBA|G2 B(d d2)BA|GABd edBA|
B2 e4 ef|g2 fg edBA|GABd edBA|GEED E2:|

